X: 282
M: C|
L: 1/8
K: G
V: 1
|:\
|:\
|:\
gdBG gdBG | (TA>GA)B E/E/E E2 |\
gdBG gdBG | cAdB G/G/G G2 :|
V: 2 clef=bass middle=d
|:\
g2g2 g2g2 | a2a2 a2a2 |\
g2g2 g2g2 | d2d2 G2G2 :|\
|:\
g2g2 d2d2 | g2g2 e2e2 |
g2g2 d2d2 | d2d2 G2G2 :|\
|:\
g2g2 g2g2 | d2d2 e2e2 |\
g2g2 g2g2 | c2d2 G2G2 :|

